app/assets/images/Contenido/Filtrar.svg

<svg fill="none" height="113" viewBox="0 0 113 113" width="113" xmlns="http://www.w3.org/2000/svg" xmlns:xlink="http://www.w3.org/1999/xlink"><filter id="a" color-interpolation-filters="sRGB" filterUnits="userSpaceOnUse" height="113" width="113" x="0" y="0"><feFlood flood-opacity="0" result="BackgroundImageFix"/><feColorMatrix in="SourceAlpha" result="hardAlpha" type="matrix" values="0 0 0 0 0 0 0 0 0 0 0 0 0 0 0 0 0 0 127 0"/><feMorphology in="SourceAlpha" operator="dilate" radius="2" result="effect1_dropShadow_16_1693"/><feOffset/><feGaussianBlur stdDeviation="5"/><feComposite in2="hardAlpha" operator="out"/><feColorMatrix type="matrix" values="0 0 0 0 0 0 0 0 0 0 0 0 0 0 0 0 0 0 0.25 0"/><feBlend in2="BackgroundImageFix" mode="normal" result="effect1_dropShadow_16_1693"/><feBlend in="SourceGraphic" in2="effect1_dropShadow_16_1693" mode="normal" result="shape"/></filter><g filter="url(#a)"><rect fill="#003778" height="89" rx="44.5" width="89" x="12" y="12"/></g><path d="m62.9992 60.9963v23.6368c.1199.8999-.18 1.8598-.8699 2.4897-.2775.2781-.6071.4987-.97.6492s-.7519.228-1.1447.228c-.3929 0-.7819-.0775-1.1447-.228-.3629-.1505-.6925-.3711-.97-.6492l-6.0292-6.0292c-.3271-.3198-.5759-.711-.7268-1.1428-.1509-.4319-.1999-.8929-.1431-1.3469v-17.6076h-.09l-17.2776-22.137c-.4871-.6253-.7069-1.418-.6113-2.2049.0955-.7868.4987-1.5039 1.1213-1.9945.5699-.4199 1.1998-.6599 1.8597-.6599h41.9942c.6599 0 1.2898.24 1.8597.6599.6226.4906 1.0258 1.2077 1.1213 1.9945.0956.7869-.1242 1.5796-.6113 2.2049l-17.2776 22.137z" fill="#fff"/></svg>

<svg width="113" height="113" viewBox="0 0 113 113" fill="none" xmlns="http://www.w3.org/2000/svg">
<g filter="url(#filter0_d_16_1693)">
<rect x="12" y="12" width="89" height="89" rx="44.5" fill="#003778"/>
</g>
<path d="M62.9992 60.9963V84.6331C63.1191 85.533 62.8192 86.4929 62.1293 87.1228C61.8518 87.4009 61.5222 87.6215 61.1593 87.772C60.7964 87.9225 60.4074 88 60.0146 88C59.6217 88 59.2327 87.9225 58.8699 87.772C58.507 87.6215 58.1774 87.4009 57.8999 87.1228L51.8707 81.0936C51.5436 80.7738 51.2948 80.3826 51.1439 79.9508C50.993 79.5189 50.944 79.0579 51.0008 78.6039V60.9963H50.9108L33.6332 38.8593C33.1461 38.234 32.9263 37.4413 33.0219 36.6544C33.1174 35.8676 33.5206 35.1505 34.1432 34.6599C34.7131 34.24 35.343 34 36.0029 34H77.9971C78.657 34 79.2869 34.24 79.8568 34.6599C80.4794 35.1505 80.8826 35.8676 80.9781 36.6544C81.0737 37.4413 80.8539 38.234 80.3668 38.8593L63.0892 60.9963H62.9992Z" fill="white"/>
<defs>
<filter id="filter0_d_16_1693" x="0" y="0" width="113" height="113" filterUnits="userSpaceOnUse" color-interpolation-filters="sRGB">
<feFlood flood-opacity="0" result="BackgroundImageFix"/>
<feColorMatrix in="SourceAlpha" type="matrix" values="0 0 0 0 0 0 0 0 0 0 0 0 0 0 0 0 0 0 127 0" result="hardAlpha"/>
<feMorphology radius="2" operator="dilate" in="SourceAlpha" result="effect1_dropShadow_16_1693"/>
<feOffset/>
<feGaussianBlur stdDeviation="5"/>
<feComposite in2="hardAlpha" operator="out"/>
<feColorMatrix type="matrix" values="0 0 0 0 0 0 0 0 0 0 0 0 0 0 0 0 0 0 0.25 0"/>
<feBlend mode="normal" in2="BackgroundImageFix" result="effect1_dropShadow_16_1693"/>
<feBlend mode="normal" in="SourceGraphic" in2="effect1_dropShadow_16_1693" result="shape"/>
</filter>
</defs>
</svg>
